X:4
T:When William at Eve. JJo.004
S:J.Jones MS,1801,N.Shrops.
C:William Shield
A:N Shropshire
Z:Neil Brookes 2006
M:6/8
L:1/8
Q:3/8=60
K:D
A/G/|FAd dcd|ceg g2g|fdA Bec|dD/E/F/G/ ADa/g/|!
f/a/d/a/f/a/ g/a/e/a/g/a/|f/a/d/a/f/a/ g/a/d/a/f/a/|\
fd’A Bec|dAF D2:|!
|:A/G/|FAd dcd|ceg g2g|fdA Bec|d2zz2{baba}d/e/|!
fed cBA|^GBe d2B|cea cdB|A2″^*”zz2{aeaea}c/d/|!
efe g=fe|fed cBA|Bcd ege|d3-c2 A|!
d2e d/e/d/e/d/e/|f2g f/g/f/g/f/g/|afb afb|Ha2 {bagf}a/g/|fdA BdB:|!
|:dd/e/f/g/ ab/a/g/f/|f/a/d/a/f/a/ g/a/e/a/g/a/|!
f/a/d/a/f/a/ g/a/e/a/f/a/|fd’A|dAF D2:|

